images/bicycle.svg

<svg height="65" viewBox="0 0 77 65" width="77" xmlns="http://www.w3.org/2000/svg"><g fill="#731982" transform=""><path d="m74.9890084 29.3979282c-3.7438482-6.649338-11.7436372-9.6107272-18.9079825-6.9994293l-8.0989501-17.56659346h7.5852608c1.0581968 0 1.9161553.85892278 1.9161553 1.91830883s-.8579585 1.91830883-1.9161553 1.91830883h-.6387185c-.7054645 0-1.2774369.57261519-1.2774369 1.27887256 0 .70625734.5719724 1.27887254 1.2774369 1.27887254h.6387185c2.4692855 0 4.4710292-2.00399328 4.4710292-4.47605393s-2.0017437-4.47605395-4.4710292-4.47605395h-9.5807769c-.7054645 0-1.2774369.57261519-1.2774369 1.27887256 0 .18495694.0400796.36783572.1175242.5358476l3.2906775 7.13738772h-20.1004699l-1.7564758-3.83661765h1.0973183c1.8216251.00367676 3.3012164-1.47182246 3.304889-3.29549472.0033533-1.68859135-1.266419-3.10766031-2.9433743-3.28942007l-7.0182384-.78267001c-2.0261747-.22108509-3.8477997 1.24418314-4.0684769 3.27279473-.2208369 2.02845174 1.2427864 3.852124 3.2691207 4.07304923.1314163.01438732.2636311.02158098.3958458.02174084h3.1527143l2.1550361 4.70752985-4.8989706 10.3588677c-7.9218654-2.9756167-16.75342548 1.041322-19.72570183 8.9720903s1.04015301 16.7722537 8.96201837 19.7478704 16.75342546-1.041322 19.72570186-8.9720903c.4964439-1.3245922.8073401-2.7115295.9240659-4.1213266h2.8014191c.6901353 2.7321513 3.4620138 4.3868526 6.1909384 3.6959417 2.7290843-.6909109 4.381928-3.4657447 3.6917927-6.197896-.2655472-1.0512333-.8585973-1.9902454-1.6932427-2.6813162l8.3697667-17.690644 3.806762 8.2589589c-7.4980756 4.2313097-10.1501943 13.7466011-5.9236346 21.2529436 4.2265597 7.5065023 13.7311694 10.1616016 21.2290854 5.9302919 7.4980756-4.2311499 10.1501943-13.7464413 5.9237943-21.2529436zm-54.6917051-24.56618262c-.6273812 0-1.1362801-.50883142-1.1369189-1.13691771.0006388-.62616797.5063441-1.13404023 1.1318092-1.1369177.0434328 0 .0855882 0 .1277436.00639437l7.0182385.78139113c.4084604.04795772.7008338.41851104.6527702.82743054-.0437522.37311107-.3580017.65542219-.7332488.65861937zm1.6185126 21.03617462c3.4446086 2.0752905 5.7125382 5.6527766 6.1214777 9.6567667h-10.6908696zm-6.5877422 23.7243648c-7.05512441.0231796-12.79305168-5.6836293-12.81636491-12.7465227-.02315354-7.0628934 5.67724902-12.8074291 12.73221371-12.8307685 1.487735-.0049557 2.9647714.2503393 4.3648423.7543749l-5.4303843 11.4868333c-.3019542.6383173-.0298601 1.400845.6077406 1.7031385.1694201.0804091.3544887.1222922.5419526.1230915h12.7092199c-.6628301 6.5310423-6.1519765 11.5021798-12.7092199 11.509853zm18.0655129-14.0675981h-2.8014192c-.4218735-4.9914396-3.2505979-9.4626977-7.5777558-11.9779203l3.9804935-8.4137026 8.1155567 17.7251736c-.8410325.6833976-1.4425457 1.6174541-1.7168752 2.6664493zm4.9283516 3.8366177c-1.4110888 0-2.5548738-1.1450705-2.5548738-2.5577451s1.143785-2.5577451 2.5548738-2.5577451c1.4110887 0 2.5548738 1.1450705 2.5548738 2.5577451s-1.1437851 2.5577451-2.5548738 2.5577451zm.9606326-7.5747622c-.3163254-.063464-.6380798-.096395-.9606326-.0984732-.3001977.0043162-.5992776.0346895-.8942058.0908l-8.2394682-17.9950157h18.6122559zm22.1392592 17.9027771c-7.081791.0292542-12.8465444-5.6943399-12.8757658-12.7840897-.0188422-4.5551842 2.3750746-8.7793002 6.2905785-11.0998145l5.3192473 11.5367094c.2826329.6471095 1.035682.942529 1.6822247.6595785.6463831-.2829506.941471-1.0368459.6588381-1.6839554-.0067065-.0155064-.0137324-.0308528-.0212374-.0458796l-5.3218022-11.5431037c1.3377958-.4688666 2.7445732-.710094 4.1618895-.7136109 7.0817909-.0292542 12.8465443 5.6943399 12.8757657 12.7840897.0293811 7.0895898-5.6879475 12.860822-12.7697384 12.8900762z"/><path d="m61.2220859 52.6642336h-45.9165644-15.3055215v2.3722628h76.5276074v-2.3722628z"/><path d="m18.0858896 62.6277372h-15.3865031c-.70809969 0-1.28220859.5310904-1.28220859 1.1861314 0 .6550411.5741089 1.1861314 1.28220859 1.1861314h15.3865031c.7080997 0 1.2822086-.5310903 1.2822086-1.1861314 0-.655041-.5741089-1.1861314-1.2822086-1.1861314z"/><path d="m46.9144939 62.6277372h-17.773773c-.7011119 0-1.2695553.5310904-1.2695553 1.1861314 0 .6550411.5684434 1.1861314 1.2695553 1.1861314h17.773773c.7011118 0 1.2695552-.5310903 1.2695552-1.1861314 0-.655041-.5684434-1.1861314-1.2695552-1.1861314z"/><path d="m73.8282209 62.6277372h-15.3865031c-.7080997 0-1.2822086.5310904-1.2822086 1.1861314 0 .6550411.5741089 1.1861314 1.2822086 1.1861314h15.3865031c.7080997 0 1.2822085-.5310903 1.2822085-1.1861314 0-.655041-.5741088-1.1861314-1.2822085-1.1861314z"/><path d="m15.2368787 44.9610324c-.7528974.0009316-1.5020667-.1027845-2.2238433-.3080431-.6849826-.2002901-1.4096767.1692374-1.6187698.8253816s.1766756 1.3503279.8616582 1.5506181c.0059972.0017079.0119945.0034158.0181538.0051237.9616663.2735745 1.9598024.4120697 2.9629631.4111381.7161035 0 1.2967016-.5561544 1.2967016-1.2421092s-.5807602-1.2421092-1.2968636-1.2421092z"/><path d="m10.0125859 42.4301454c-1.46507789-1.4241951-2.28823367-3.3810005-2.28126315-5.4222519-.00031684-.7347114.10598369-1.4654693.31557474-2.1696599.1994521-.6700327-.18297632-1.3746977-.85420631-1.5737941-.67123-.1990963-1.37715421.18265-1.57660631.8526827-1.0693421 3.5982828-.0602 7.4919683 2.62345262 10.1208622.23683947.2310403.55479052.3605557.88589052.3605557.69990421-.0001581 1.26736839-.5666101 1.26720999-1.2652659 0-.3396814-.1370342-.6651304-.3800521-.9031288z"/><path d="m65.8733496 27.9380549c-.9411913-.4398732-1.9449986-.7370071-2.9769423-.881343-.7117079-.0994704-1.3708833.3863859-1.4722073 1.0850737-.1013241.6986878.3935861 1.3458042 1.1052939 1.4452747.7722095.1072939 1.5232759.3290666 2.2275023.6578139.1741863.0803108.3644738.1211846.5568756.120067.7185387-.0041513 1.2976958-.5792595 1.2934672-1.2848128-.0029275-.4868142-.2875456-.929721-.7339894-1.1420735z"/><path d="m69.4517821 31.3772193c-.4264472-.583621-1.2468785-.7122432-1.8325261-.2871526-.5687603.412833-.7092698 1.199602-.3185648 1.7828962.9194602 1.3144958 1.4105058 2.8795351 1.406079 4.4820007.0003279.7591487-.1093581 1.514375-.325287 2.2423079-.2060915.6916506.1890403 1.4190932.8827343 1.6251829.1211628.0366091.2472443.0552405.3738176.0549136.5802371-.0003268 1.0912852-.3804732 1.2565519-.9348397.9112625-3.0516306.3803759-6.350863-1.4428049-8.965309z"/></g></svg>

<?xml version="1.0" encoding="UTF-8"?>
<svg width="77px" height="65px" viewBox="0 0 77 65" version="1.1" xmlns="http://www.w3.org/2000/svg" xmlns:xlink="http://www.w3.org/1999/xlink">
    <!-- Generator: Sketch 48.2 (47327) - http://www.bohemiancoding.com/sketch -->
    <title>002-bicycle</title>
    <desc>Created with Sketch.</desc>
    <defs></defs>
    <g id="Desktop-HD-Copy-25" stroke="none" stroke-width="1" fill="none" fill-rule="evenodd" transform="translate(-1015.000000, -1272.000000)">
        <g id="Group-13" transform="translate(1015.000000, 1272.000000)" fill="#731982" fill-rule="nonzero">
            <g id="002-bicycle">
                <path d="M74.9890084,29.3979282 C71.2451602,22.7485902 63.2453712,19.787201 56.0810259,22.3984989 L47.9820758,4.83190544 L55.5673366,4.83190544 C56.6255334,4.83190544 57.4834919,5.69082822 57.4834919,6.75021427 C57.4834919,7.80960032 56.6255334,8.6685231 55.5673366,8.6685231 L54.9286181,8.6685231 C54.2231536,8.6685231 53.6511812,9.24113829 53.6511812,9.94739566 C53.6511812,10.653653 54.2231536,11.2262682 54.9286181,11.2262682 L55.5673366,11.2262682 C58.0366221,11.2262682 60.0383658,9.22227492 60.0383658,6.75021427 C60.0383658,4.27815362 58.0366221,2.27416032 55.5673366,2.27416032 L45.9865597,2.27416032 C45.2810952,2.27416032 44.7091228,2.84677551 44.7091228,3.55303288 C44.7091228,3.73798982 44.7492024,3.9208686 44.826647,4.08888048 L48.1173245,11.2262682 L28.0168546,11.2262682 L26.2603788,7.38965055 L27.3576971,7.38965055 C29.1793222,7.39332731 30.6589135,5.91782809 30.6625861,4.09415583 C30.6659394,2.40556448 29.3961671,0.98649552 27.7192118,0.804735758 L20.7009734,0.0220657545 C18.6747987,-0.199019339 16.8531737,1.26624889 16.6324965,3.29486048 C16.4116596,5.32331222 17.8752829,7.14698448 19.9016172,7.36790971 C20.0330335,7.38229703 20.1652483,7.38949069 20.297463,7.38965055 L23.4501773,7.38965055 L25.6052134,12.0971804 L20.7062428,22.4560481 C12.7843774,19.4804314 3.95281732,23.4973701 0.98054097,31.4281384 C-1.99173538,39.3589067 2.02069398,48.2003921 9.94255934,51.1760088 C17.8644247,54.1516255 26.6959848,50.1346868 29.6682612,42.2039185 C30.1647051,40.8793263 30.4756013,39.492389 30.5923271,38.0825919 L33.3937462,38.0825919 C34.0838815,40.8147432 36.85576,42.4694445 39.5846846,41.7785336 C42.3137689,41.0876227 43.9666126,38.3127889 43.2764773,35.5806376 C43.0109301,34.5294043 42.41788,33.5903922 41.5832346,32.8993214 L49.9530013,15.2086774 L53.7597633,23.4676363 C46.2616877,27.698946 43.609569,37.2142374 47.8361287,44.7205799 C52.0626884,52.2270822 61.5672981,54.8821815 69.0652141,50.6508718 C76.5632897,46.4197219 79.2154084,36.9044305 74.9890084,29.3979282 Z M20.2973033,4.83174558 C19.6699221,4.83174558 19.1610232,4.32291416 19.1603844,3.69482787 C19.1610232,3.0686599 19.6667285,2.56078764 20.2921936,2.55791017 C20.3356264,2.55791017 20.3777818,2.55791017 20.4199372,2.56430454 L27.4381757,3.34569567 C27.8466361,3.39365339 28.1390095,3.76420671 28.0909459,4.17312621 C28.0471937,4.54623728 27.7329442,4.8285484 27.3576971,4.83174558 L20.2973033,4.83174558 Z M21.9158159,25.8679202 C25.3604245,27.9432107 27.6283541,31.5206968 28.0372936,35.5246869 L17.346424,35.5246869 L21.9158159,25.8679202 Z M15.3280737,49.592285 C8.27294929,49.6154646 2.53502202,43.9086557 2.51170879,36.8457623 C2.48855525,29.7828689 8.18895781,24.0383332 15.2439225,24.0149938 C16.7316575,24.0100381 18.2086939,24.2653331 19.6087648,24.7693687 L14.1783805,36.256202 C13.8764263,36.8945193 14.1485204,37.657047 14.7861211,37.9593405 C14.9555412,38.0397496 15.1406098,38.0816327 15.3280737,38.082432 L28.0372936,38.082432 C27.3744635,44.6134743 21.8853171,49.5846118 15.3280737,49.592285 Z M33.3935866,35.5246869 L30.5921674,35.5246869 C30.1702939,30.5332473 27.3415695,26.0619892 23.0144116,23.5467666 L26.9949051,15.133064 L35.1104618,32.8582376 C34.2694293,33.5416352 33.6679161,34.4756917 33.3935866,35.5246869 Z M38.3219382,39.3613046 C36.9108494,39.3613046 35.7670644,38.2162341 35.7670644,36.8035595 C35.7670644,35.3908849 36.9108494,34.2458144 38.3219382,34.2458144 C39.7330269,34.2458144 40.876812,35.3908849 40.876812,36.8035595 C40.876812,38.2162341 39.7330269,39.3613046 38.3219382,39.3613046 Z M39.2825708,31.7865424 C38.9662454,31.7230784 38.644491,31.6901474 38.3219382,31.6880692 C38.0217405,31.6923854 37.7226606,31.7227587 37.4277324,31.7788692 L29.1882642,13.7838535 L47.8005201,13.7838535 L39.2825708,31.7865424 Z M61.42183,49.6893195 C54.340039,49.7185737 48.5752856,43.9949796 48.5460642,36.9052298 C48.527222,32.3500456 50.9211388,28.1259296 54.8366427,25.8054153 L60.15589,37.3421247 C60.4385229,37.9892342 61.191572,38.2846537 61.8381147,38.0017032 C62.4844978,37.7187526 62.7795857,36.9648573 62.4969528,36.3177478 C62.4902463,36.3022414 62.4832204,36.286895 62.4757154,36.2718682 L57.1539132,24.7287645 C58.491709,24.2598979 59.8984864,24.0186705 61.3158027,24.0151536 C68.3975936,23.9858994 74.162347,29.7094935 74.1915684,36.7992433 C74.2209495,43.8888331 68.5036209,49.6600653 61.42183,49.6893195 Z" id="Shape"></path>
                <polygon id="Shape" points="61.2220859 52.6642336 15.3055215 52.6642336 0 52.6642336 0 55.0364964 76.5276074 55.0364964 76.5276074 52.6642336"></polygon>
                <path d="M18.0858896,62.6277372 L2.6993865,62.6277372 C1.99128681,62.6277372 1.41717791,63.1588276 1.41717791,63.8138686 C1.41717791,64.4689097 1.99128681,65 2.6993865,65 L18.0858896,65 C18.7939893,65 19.3680982,64.4689097 19.3680982,63.8138686 C19.3680982,63.1588276 18.7939893,62.6277372 18.0858896,62.6277372 Z" id="Shape"></path>
                <path d="M46.9144939,62.6277372 L29.1407209,62.6277372 C28.439609,62.6277372 27.8711656,63.1588276 27.8711656,63.8138686 C27.8711656,64.4689097 28.439609,65 29.1407209,65 L46.9144939,65 C47.6156057,65 48.1840491,64.4689097 48.1840491,63.8138686 C48.1840491,63.1588276 47.6156057,62.6277372 46.9144939,62.6277372 Z" id="Shape"></path>
                <path d="M73.8282209,62.6277372 L58.4417178,62.6277372 C57.7336181,62.6277372 57.1595092,63.1588276 57.1595092,63.8138686 C57.1595092,64.4689097 57.7336181,65 58.4417178,65 L73.8282209,65 C74.5363206,65 75.1104294,64.4689097 75.1104294,63.8138686 C75.1104294,63.1588276 74.5363206,62.6277372 73.8282209,62.6277372 Z" id="Shape"></path>
                <path d="M15.2368787,44.9610324 C14.4839813,44.961964 13.734812,44.8582479 13.0130354,44.6529893 C12.3280528,44.4526992 11.6033587,44.8222267 11.3942656,45.4783709 C11.1851725,46.1345151 11.5709412,46.8286988 12.2559238,47.028989 C12.261921,47.0306969 12.2679183,47.0324048 12.2740776,47.0341127 C13.2357439,47.3076872 14.23388,47.4461824 15.2370407,47.4452508 C15.9531442,47.4452508 16.5337423,46.8890964 16.5337423,46.2031416 C16.5337423,45.5171868 15.9529821,44.9610324 15.2368787,44.9610324 Z" id="Shape"></path>
                <path d="M10.0125859,42.4301454 C8.54750801,41.0059503 7.72435223,39.0491449 7.73132275,37.0078935 C7.73100591,36.2731821 7.83730644,35.5424242 8.04689749,34.8382336 C8.24634959,34.1682009 7.86392117,33.4635359 7.19269118,33.2644395 C6.52146118,33.0653432 5.81553697,33.4470895 5.61608487,34.1171222 C4.54674277,37.715405 5.55588487,41.6090905 8.23953749,44.2379844 C8.47637696,44.4690247 8.79432801,44.5985401 9.12542801,44.5985401 C9.82533222,44.598382 10.3927964,44.03193 10.392638,43.3332742 C10.392638,42.9935928 10.2556038,42.6681438 10.0125859,42.4301454 Z" id="Shape"></path>
                <path d="M65.8733496,27.9380549 C64.9321583,27.4981817 63.928351,27.2010478 62.8964073,27.0567119 C62.1846994,26.9572415 61.525524,27.4430978 61.4242,28.1417856 C61.3228759,28.8404734 61.8177861,29.4875898 62.5294939,29.5870603 C63.3017034,29.6943542 64.0527698,29.9161269 64.7569962,30.2448742 C64.9311825,30.325185 65.12147,30.3660588 65.3138718,30.3649412 C66.0324105,30.3607899 66.6115676,29.7856817 66.607339,29.0801284 C66.6044115,28.5933142 66.3197934,28.1504074 65.8733496,27.9380549 Z" id="Shape"></path>
                <path d="M69.4517821,31.3772193 C69.0253349,30.7935983 68.2049036,30.6649761 67.619256,31.0900667 C67.0504957,31.5028997 66.9099862,32.2896687 67.3006912,32.8729629 C68.2201514,34.1874587 68.711197,35.752498 68.7067702,37.3549636 C68.7070981,38.1141123 68.5974121,38.8693386 68.3814832,39.5972715 C68.1753917,40.2889221 68.5705235,41.0163647 69.2642175,41.2224544 C69.3853803,41.2590635 69.5114618,41.2776949 69.6380351,41.277368 C70.2182722,41.2770412 70.7293203,40.8968948 70.894587,40.3425283 C71.8058495,37.2908977 71.2749629,33.9916653 69.4517821,31.3772193 Z" id="Shape"></path>
            </g>
        </g>
    </g>
</svg>
